X:1
T:Title
%%score 1 2
L:1/8
Q:1/4=120
M:6/4
K:G
V:1 treble nm="Strings 1, Treble"
V:2 bass nm="Strings 1, Bass"
V:1
 z6 z4 [B,D]2 | [DB]4 [CA]2 [B,G]4 [B,D]2 | [DF]2 [CE]4- [CE]4 [CE]2 | [B,D]4 [CE]2 [DG]4 [DA]2 | %4
w: 1.~My~|dear est~ friend~ is~|Je sus,~ * On~|Him~ I~ do~ de|
 [DB]6- [DB]4 [DB]2 | [Gd]4 [Gd]2 [Fc]4 [=FB]2 | [EB]2 [EA]4- [EA]4 [Ac]2 | %7
w: pend;~ * He~|says~ He~ will~ be~|with~ me,~ * Un|
 [GB]4 [EA]2 [DG]4 [DF]2 | [DG]6- [DG]4 [B,D][B,D] | [DB]4 [CA]2 [B,G]4 [B,D]2 | %10
w: til~ my~ jour ney's~|end.~ * * *||
 [DF]2 [CE]4- [CE]4 [CE][CE] | [B,D]4 [DG]2 [GB]4 G2 | [FA]6- [FA]4 [DG][DG] | %13
w: |||
 [Gd]4 [GB]2 [EA]4 [DG]2 | [EA]2 [EG]4- [EG]4 [Ac]2 | [GB]4 [EA]2 [DG]4 [DF]2 | [DG]12 |] %17
w: ||||
V:2
 z6 z4 [G,,G,]2 | [G,,G,]4 [G,,E,]2 [G,,D,]4 [G,,G,]2 | [C,G,]2 [C,G,]4- [C,G,]4 [C,G,]2 | %3
 [G,,G,]4 [B,,G,]2 [B,,G,]4 [D,F,]2 | G,6- G,4 G,2 | [G,B,]4 [B,D]2 [A,D]4 [G,D]2 | %6
 [C,D]2 [C,C]4- [C,C]4 [C,E]2 | [D,D]4 [D,C]2 [D,B,]4 [D,A,]2 | [G,,B,]6- [G,,B,]4 [G,,G,][G,,G,] | %9
 [G,,G,]4 [G,,E,]2 [G,,D,]4 [G,,G,]2 | [C,G,]2 [C,G,]4- [C,G,]4 [C,G,][C,G,] | %11
 [G,,G,]4 [G,,B,]2 [G,D]4 [E,^C]2 | [D,D]6- [D,D]4 [G,B,][G,B,] | [G,B,]4 [G,D]2 [G,C]4 [G,B,]2 | %14
 [C,C]2 [C,C]4- [C,C]4 [C,E]2 | [D,D]4 [D,C]2 [D,B,]4 [D,A,]2 | [G,,B,]12 |] %17

